apps/www/public/images/product/auth/flutter-icon.svg

<svg width="182" height="182" viewBox="0 0 182 182" fill="none" xmlns="http://www.w3.org/2000/svg">
<g clip-path="url(#clip0_1306_4326)">
<path d="M42.7001 118.9L14.8 91.0004L105.4 0.400391H161.2" fill="#44D1FD"/>
<path d="M161.2 84H105.4L84.5 104.9L112.4 132.8" fill="#44D1FD"/>
<path d="M84.5 160.701L105.4 181.601H161.2L112.4 132.801" fill="#08589C"/>
<path d="M84.5214 104.957L56.6616 132.816L84.5214 160.676L112.381 132.816L84.5214 104.957Z" fill="#1FBCFD"/>
<path d="M112.381 132.816L84.5212 160.676L88.4103 164.565L116.27 136.705L112.381 132.816Z" fill="url(#paint0_linear_1306_4326)"/>
<path d="M84.5 160.701L125.9 146.401L112.4 132.801" fill="url(#paint1_linear_1306_4326)"/>
</g>
<defs>
<linearGradient id="paint0_linear_1306_4326" x1="84.5212" y1="160.676" x2="88.4103" y2="164.565" gradientUnits="userSpaceOnUse">
<stop offset="0.2" stop-opacity="0.15"/>
<stop offset="0.85" stop-color="#616161" stop-opacity="0.01"/>
</linearGradient>
<linearGradient id="paint1_linear_1306_4326" x1="84.5" y1="132.801" x2="125.9" y2="132.801" gradientUnits="userSpaceOnUse">
<stop offset="0.2" stop-opacity="0.26"/>
<stop offset="0.85" stop-color="#616161" stop-opacity="0.01"/>
</linearGradient>
<clipPath id="clip0_1306_4326">
<rect width="182" height="182" fill="white"/>
</clipPath>
</defs>
</svg>

<svg xmlns="http://www.w3.org/2000/svg" width="182" height="182" fill="none" viewBox="0 0 182 182"><g clip-path="url(#a)"><path fill="#44d1fd" d="M42.7 118.9 14.8 91 105.4.4h55.8M161.2 84h-55.8l-20.9 20.9 27.9 27.9"/><path fill="#08589c" d="m84.5 160.701 20.9 20.9h55.8l-48.8-48.8"/><path fill="#1fbcfd" d="m84.521 104.957-27.86 27.859 27.86 27.86 27.86-27.86z"/><path fill="url(#b)" d="m112.381 132.816-27.86 27.86 3.89 3.889 27.859-27.86z"/><path fill="url(#c)" d="m84.5 160.701 41.4-14.3-13.5-13.6"/></g><defs><linearGradient id="b" x1="84.521" x2="88.41" y1="160.676" y2="164.565" gradientUnits="userSpaceOnUse"><stop offset=".2" stop-opacity=".15"/><stop offset=".85" stop-color="#616161" stop-opacity=".01"/></linearGradient><linearGradient id="c" x1="84.5" x2="125.9" y1="132.801" y2="132.801" gradientUnits="userSpaceOnUse"><stop offset=".2" stop-opacity=".26"/><stop offset=".85" stop-color="#616161" stop-opacity=".01"/></linearGradient><clipPath id="a"><path fill="#fff" d="M0 0h182v182H0z"/></clipPath></defs></svg>
